X: 27180
T: Miss Monaghan
R: reel
M: 4/4
K: Dmajor
|:D2 E/E/D FAAA-|ABBA FABc|d2 dB ABde|fede fe e2|
D2 ED FAAA-|ABBA FABc|d2 dB ABdB|1 AFEG FAEA:|2 AFEG FD D2||
|:fa a2 afdf|g2 fg edBc|d2 dB ABde|fede fe e2|
fa a2 afdf|g2 fg edBc|d2 dB ABdB|1 AFEG FD D2:|2 AFEG FAEA:|

